X:1
T:Title
%%score { ( 1 3 ) | 2 }
L:1/8
M:3/4
K:F
V:1 treble nm="Grand Piano"
V:3 treble 
V:2 bass 
V:1
 z2 z2[Q:1/4=88] C2 | A>A AA BB | A4 A2 | c>c cc BA |[M:2/4] [EG]4 |[M:1/4] C2 |[M:3/4] A>A AA BB | %7
 A4 A2 | G>G GG AG |[M:2/4] [CEG]4 |[M:1/4] c2 |[M:3/4] [Af]>[CAc] [CAc][CFA] [CGB][CEc] | %12
 [CFA]4 c2 | [Af]>[Ac] [Ac][FA] [GB][Ec] |[M:2/4] A4 |[M:1/4] F2 |[M:3/4] A>A A[FA] [FB][Fc] | %17
 z2 z2 [Fd]2 | [Fc]>[Fc] [Ed][Ec] [EB][EG] |[M:2/4] F4 |] %20
V:2
 z2 z2 [F,A,]2 | [F,CF]>[F,CF] [F,CF][F,CF][K:treble] [F,DF][F,^CF] | [F,CF]4 [F,CF]2 | %3
 [A,CF]>[A,CF] [A,CF][A,CF][K:bass] [G,CE][F,CF] |[M:2/4] [C,C]4 |[M:1/4] z2 | %6
[M:3/4][K:treble] [F,CF]>[F,CF] [F,CF][F,CF] [F,DF][F,^CF] | [F,CF]4 [F,CF]2 | %8
 [G,CE]>[G,CE] [G,CE][G,CE] [G,=B,F][G,B,F] |[M:2/4][K:bass] C,4 |[M:1/4] C2 | %11
[M:3/4] [F,C]>F, F,F, E,D, | F,4 C2 | [F,C]>[F,C] [F,C][F,C] [E,C][C,C] |[M:2/4] [F,CF]4 | %15
[M:1/4] [F,A,]2 |[M:3/4] [F,CF]>[F,CF] [F,CF][_E,C] [D,B,][C,A,] | [B,,B,]4 .[=B,,G,]2 | %18
 [C,A,]>[C,A,] [C,B,][C,B,] [C,G,][C,B,] |[M:2/4] [F,A,]4 |] %20
V:3
 x6 | x6 | x6 | x6 |[M:2/4] x4 |[M:1/4] x2 |[M:3/4] x6 | x6 | x6 |[M:2/4] x4 |[M:1/4] x2 | %11
[M:3/4] x6 | x6 | x6 |[M:2/4] x4 |[M:1/4] x2 |[M:3/4] x6 | [Fd]4 z _A, | x6 |[M:2/4] x4 |] %20

